media/delete-x.svg

<?xml version="1.0" encoding="UTF-8"?>
<svg width="12px" height="12px" viewBox="0 0 12 12" version="1.1" xmlns="http://www.w3.org/2000/svg" xmlns:xlink="http://www.w3.org/1999/xlink">
    <!-- Generator: Sketch 50.2 (55047) - http://www.bohemiancoding.com/sketch -->
    <title>delete-x</title>
    <desc>Created with Sketch.</desc>
    <defs></defs>
    <g id="delete-x" stroke="none" stroke-width="1" fill="none" fill-rule="evenodd">
        <path d="M10.8761123,10.87825 C10.2421123,11.52125 9.20511231,11.52125 8.56211231,10.87825 L5.92911231,8.24525 L3.29511231,10.87825 C2.65611231,11.51725 1.62011231,11.51725 0.981112306,10.87825 C0.662112306,10.55925 0.500112306,10.13725 0.500112306,9.72125 C0.500112306,9.30425 0.662112306,8.88325 0.981112306,8.56425 L3.61411231,5.93125 L0.977112306,3.29325 C0.657112306,2.97325 0.495112306,2.55225 0.500112306,2.13125 C0.500112306,1.71425 0.657112306,1.29825 0.977112306,0.97925 C1.61511231,0.34025 2.65111231,0.34025 3.29111231,0.97925 L5.92911231,3.61625 L8.56611231,0.97925 C9.20511231,0.34025 10.2421123,0.34025 10.8811123,0.97925 C11.5201123,1.61725 11.5201123,2.65425 10.8811123,3.29325 L8.24211231,5.93125 L10.8811123,8.56825 C11.5201123,9.20725 11.5201123,10.23425 10.8761123,10.87825" id="Fill-1" fill="#575E75"></path>
    </g>
</svg>

<svg width="12" height="12" xmlns="http://www.w3.org/2000/svg"><path d="M10.87611 10.87825c-.634.643-1.671.643-2.314 0l-2.633-2.633-2.634 2.633c-.639.639-1.675.639-2.314 0-.319-.319-.481-.741-.481-1.157 0-.417.162-.838.481-1.157l2.633-2.633-2.637-2.638c-.32-.32-.482-.741-.477-1.162 0-.417.157-.833.477-1.152.638-.639 1.674-.639 2.314 0l2.638 2.637 2.637-2.637c.639-.639 1.676-.639 2.315 0 .639.638.639 1.675 0 2.314l-2.639 2.638 2.639 2.637c.639.639.639 1.666-.005 2.31" fill="#575E75" fill-rule="evenodd"/></svg>
